X:105
T:Polska efter Bleckå och Gössa Anders d.ä.
R:Polska
Z:Henrik Åberg, 090103
O:Orsa, Dalarna
B:Svenska Låtar Dalarna
S:efter Bleckå
S:efter Gössa Anders d ä
N:Den har nummer 105 i SVL Dalarna del 1
M:3/4
L:1/8
K:Ddor
|:{ab}a>g{fg}f2e2|{de}d{ed}c A<BG2|c2{cd}c/2B/2c/2d/2{cd} c>B|{Bc}BAA4::A2de {^cB}^c>d|e2f/2a/2f/2d/2 ez/2^c/2|A2de {^cB}^c>d|e2f/2a/2f/2d/2 ez/2e/2|a>b a3/2{ba}f/2 a3/2{ba}g/2|e<fd4:|

